img/svg/computer.svg

<?xml version="1.0" encoding="iso-8859-1"?>
<!-- Generator: Adobe Illustrator 16.0.0, SVG Export Plug-In . SVG Version: 6.00 Build 0)  -->
<!DOCTYPE svg PUBLIC "-//W3C//DTD SVG 1.1//EN" "http://www.w3.org/Graphics/SVG/1.1/DTD/svg11.dtd">
<svg version="1.1" id="Capa_1" xmlns="http://www.w3.org/2000/svg" xmlns:xlink="http://www.w3.org/1999/xlink" x="0px" y="0px"
	 width="52.62px" height="52.62px" viewBox="0 0 52.62 52.62" style="enable-background:new 0 0 52.62 52.62;" xml:space="preserve"
	>
<g>
	<g>
		<g>
			<path d="M49.829,4.313H21.933c-1.54,0-2.789,1.249-2.789,2.789v5.995h12.268c2.2,0,4,1.8,4,4v20.689h6.049
				c0.771,0,1.163-0.58,0.877-1.295l-1.993-4.981h10.183c1.155,0,2.093-0.937,2.093-2.095V7.104
				C52.619,5.562,51.37,4.313,49.829,4.313z"/>
			<path d="M30.685,14.833H2.789C1.249,14.833,0,16.082,0,17.622v22.316c0,1.156,0.936,2.093,2.092,2.093h10.182l-1.992,4.981
				c-0.285,0.715,0.106,1.295,0.877,1.295h11.158c0.771,0,1.163-0.58,0.877-1.295l-1.993-4.981h10.182
				c1.155,0,2.092-0.937,2.092-2.093V17.622C33.474,16.082,32.226,14.833,30.685,14.833z M16.737,40.236
				c-0.818,0-1.481-0.663-1.481-1.48s0.663-1.48,1.481-1.48c0.818,0,1.482,0.663,1.482,1.48S17.555,40.236,16.737,40.236z
				 M29.474,35.058H3.999V18.833h25.475V35.058z"/>
		</g>
	</g>
</g>
<g>
</g>
<g>
</g>
<g>
</g>
<g>
</g>
<g>
</g>
<g>
</g>
<g>
</g>
<g>
</g>
<g>
</g>
<g>
</g>
<g>
</g>
<g>
</g>
<g>
</g>
<g>
</g>
<g>
</g>
</svg>

<?xml version="1.0" encoding="UTF-8" standalone="no"?>
<!DOCTYPE svg PUBLIC "-//W3C//DTD SVG 1.1//EN" "http://www.w3.org/Graphics/SVG/1.1/DTD/svg11.dtd">
<svg width="100%" height="100%" viewBox="0 0 52 52" version="1.1" xmlns="http://www.w3.org/2000/svg" xmlns:xlink="http://www.w3.org/1999/xlink" xml:space="preserve" xmlns:serif="http://www.serif.com/" style="fill-rule:evenodd;clip-rule:evenodd;stroke-linejoin:round;stroke-miterlimit:2;">
    <g>
        <path d="M49.829,4.313L21.933,4.313C20.393,4.313 19.144,5.562 19.144,7.102L19.144,13.097L31.412,13.097C33.612,13.097 35.412,14.897 35.412,17.097L35.412,37.786L41.461,37.786C42.232,37.786 42.624,37.206 42.338,36.491L40.345,31.51L50.528,31.51C51.683,31.51 52.621,30.573 52.621,29.415L52.621,7.104C52.619,5.562 51.37,4.313 49.829,4.313Z" style="fill:rgb(160,242,116);fill-rule:nonzero;"/>
        <path d="M30.685,14.833L2.789,14.833C1.249,14.833 0,16.082 0,17.622L0,39.938C0,41.094 0.936,42.031 2.092,42.031L12.274,42.031L10.282,47.012C9.997,47.727 10.388,48.307 11.159,48.307L22.317,48.307C23.088,48.307 23.48,47.727 23.194,47.012L21.201,42.031L31.383,42.031C32.538,42.031 33.475,41.094 33.475,39.938L33.475,17.622C33.474,16.082 32.226,14.833 30.685,14.833ZM16.737,40.236C15.919,40.236 15.256,39.573 15.256,38.756C15.256,37.939 15.919,37.276 16.737,37.276C17.555,37.276 18.219,37.939 18.219,38.756C18.219,39.573 17.555,40.236 16.737,40.236ZM29.474,35.058L3.999,35.058L3.999,18.833L29.474,18.833L29.474,35.058Z" style="fill:rgb(160,242,116);fill-rule:nonzero;"/>
    </g>
</svg>
